Adwaita++/places/scalable/network-workgroup.svg

<svg fill="none" height="128" viewBox="0 0 128 128" width="128" xmlns="http://www.w3.org/2000/svg" xmlns:xlink="http://www.w3.org/1999/xlink">
  <linearGradient id="paint0_linear" gradientUnits="userSpaceOnUse" x1="116" x2="12" y1="117.999" y2="117.999">
    <stop offset="0" stop-color="#d5d3cf"/>
    <stop offset=".038" stop-color="#e3e2df"/>
    <stop offset=".077" stop-color="#c0bfbc"/>
    <stop offset=".923" stop-color="#c0bfbc"/>
    <stop offset=".962" stop-color="#e3e2df"/>
    <stop offset="1" stop-color="#d5d3cf"/>
  </linearGradient>
  <path d="m108 68h-88c-4.4183 0-8 3.5817-8 8v32c0 4.418 3.5817 8 8 8h88c4.418 0 8-3.582 8-8v-32c0-4.4183-3.582-8-8-8z" fill="url(#paint0_linear)"/>
  <path d="m20 10c-4.432 0-8 3.568-8 8v42 42c0 4.432 3.568 8 8 8h44 44c4.432 0 8-3.568 8-8v-42-42c0-4.432-3.568-8-8-8z" fill="#c061cb"/>
  <path d="m64 26.7073c-18.8585 0-34.1464 15.2878-34.1464 34.1463 0 18.8586 15.2879 34.1464 34.1464 34.1464s34.1464-15.2878 34.1464-34.1464c0-18.8585-15.2879-34.1463-34.1464-34.1463zm-3.1946 6.8092c.3716-.0389.839.0222 1.2138 0 .0445.1777-.2632.8153-.6869 1.7407-2.6983 5.8946-2.8577 12.7964-.3535 16.4863.4532.669.867 1.3045.867 1.3872 0 .0828-.4878.1734-1.0404.1734-1.2972 0-2.527-.7883-5.0352-2.7744-1.1142-.8823-2.56-1.6218-3.1212-1.734-.8813-.1761-1.1141-.0998-2.2542 1.0404-1.0607 1.0605-1.3872 1.6368-1.3872 2.6077 0 3.6817 4.3736 6.6009 12.4981 8.3231 11.0335 2.3385 13.7477 4.4355 14.052 10.2373.3822 7.2753-3.4874 12.7596-11.9712 17.0065-1.0126.507-1.6559.7098-2.0808.8736-.1883-.0167-.3392.0168-.5269 0-.0721-.2249-.1733-.7452-.1733-1.734 0-3.8641-1.5198-7.8462-3.8148-10.0705-.6161-.5971-2.3377-1.86-3.8148-2.7744-1.4771-.9143-2.9692-1.9744-3.3013-2.4276-.5502-.752-.5896-1.2117-.1667-2.601.7706-2.5372 1.6848-3.9589 3.468-5.5621.9348-.8405 1.8737-1.5372 2.0808-1.5539s-1.192-.4435-3.2946-.8737c-2.1025-.4309-5.1858-1.3318-6.776-1.9074-2.9077-1.0521-6.8331-3.2633-8.3298-4.8618-.0633-.0678-.1184-.1134-.1734-.1734 2.1444-8.5421 8.1617-15.5401 16.1395-18.9139 1.6693-.706 3.3922-1.1891 5.2087-1.5606.9048-.1849 1.8401-.2585 2.7743-.3535zm26.0367 13.0183c.6522.4032 3.1184 5.7374 3.8214 8.3366.9077 3.3554.842 9.1581 0 12.4914-.3205 1.2687-.737 2.4533-.8737 2.601-.1366.1477-.6376-.6945-1.2204-1.7273-.5829-1.0327-2.4344-3.2294-3.9815-4.8619-4.466-4.7124-5.172-7.1699-3.3013-10.9308.9434-1.8966 5.0506-6.2205 5.5555-5.909z" fill="#000" opacity=".2"/>
  <path d="m64 25c-18.8585 0-34.1464 15.2878-34.1464 34.1464 0 18.8585 15.2879 34.1463 34.1464 34.1463s34.1464-15.2878 34.1464-34.1463c0-18.8586-15.2879-34.1464-34.1464-34.1464zm-3.1946 6.8093c.3716-.0389.839.0222 1.2138 0 .0445.1777-.2632.8152-.6869 1.7406-2.6983 5.8947-2.8577 12.7965-.3535 16.4863.4532.669.867 1.3045.867 1.3872 0 .0828-.4878.1734-1.0404.1734-1.2972 0-2.527-.7882-5.0352-2.7744-1.1142-.8823-2.56-1.6218-3.1212-1.734-.8813-.176-1.1141-.0998-2.2542 1.0404-1.0607 1.0606-1.3872 1.6368-1.3872 2.6077 0 3.6817 4.3736 6.601 12.4981 8.3232 11.0335 2.3384 13.7477 4.4354 14.052 10.2372.3822 7.2753-3.4874 12.7596-11.9712 17.0065-1.0126.507-1.6559.7098-2.0808.8737-.1883-.0168-.3392.0167-.5269 0-.0721-.225-.1733-.7453-.1733-1.734 0-3.8642-1.5198-7.8463-3.8148-10.0705-.6161-.5972-2.3377-1.86-3.8148-2.7744s-2.9692-1.9745-3.3013-2.4276c-.5502-.752-.5896-1.2118-.1667-2.601.7706-2.5373 1.6848-3.959 3.468-5.5621.9348-.8405 1.8737-1.5372 2.0808-1.554.2071-.0167-1.192-.4435-3.2946-.8736-2.1025-.431-5.1858-1.3319-6.776-1.9074-2.9077-1.0522-6.8331-3.2633-8.3298-4.8619-.0633-.0678-.1184-.1134-.1734-.1734 2.1444-8.5421 8.1617-15.54 16.1395-18.9139 1.6693-.706 3.3922-1.189 5.2087-1.5606.9048-.1849 1.8401-.2585 2.7743-.3534zm26.0367 13.0183c.6522.4032 3.1184 5.7374 3.8214 8.3365.9077 3.3554.842 9.1581 0 12.4914-.3205 1.2687-.737 2.4533-.8737 2.601-.1366.1477-.6376-.6945-1.2204-1.7273-.5829-1.0327-2.4344-3.2294-3.9815-4.8619-4.466-4.7124-5.172-7.1699-3.3013-10.9308.9434-1.8965 5.0506-6.2205 5.5555-5.9089z" fill="#fff"/>
</svg>

<svg width="128" height="128" viewBox="0 0 128 128" fill="none" xmlns="http://www.w3.org/2000/svg">
<path d="M108 68H20C15.5817 68 12 71.5817 12 76V108C12 112.418 15.5817 116 20 116H108C112.418 116 116 112.418 116 108V76C116 71.5817 112.418 68 108 68Z" fill="url(#paint0_linear)"/>
<path d="M20 10C15.568 10 12 13.568 12 18V60V102C12 106.432 15.568 110 20 110H64H108C112.432 110 116 106.432 116 102V60V18C116 13.568 112.432 10 108 10H20Z" fill="url(#paint1_linear)"/>
<path opacity="0.2" d="M64 26.7073C45.1415 26.7073 29.8536 41.9951 29.8536 60.8536C29.8536 79.7122 45.1415 95 64 95C82.8585 95 98.1464 79.7122 98.1464 60.8536C98.1464 41.9951 82.8585 26.7073 64 26.7073V26.7073ZM60.8054 33.5165C61.177 33.4776 61.6444 33.5387 62.0192 33.5165C62.0637 33.6942 61.756 34.3318 61.3323 35.2572C58.634 41.1518 58.4746 48.0536 60.9788 51.7435C61.432 52.4125 61.8458 53.048 61.8458 53.1307C61.8458 53.2135 61.358 53.3041 60.8054 53.3041C59.5082 53.3041 58.2784 52.5158 55.7702 50.5297C54.656 49.6474 53.2102 48.9079 52.649 48.7957C51.7677 48.6196 51.5349 48.6959 50.3948 49.8361C49.3341 50.8966 49.0076 51.4729 49.0076 52.4438C49.0076 56.1255 53.3812 59.0447 61.5057 60.7669C72.5392 63.1054 75.2534 65.2024 75.5577 71.0042C75.9399 78.2795 72.0703 83.7638 63.5865 88.0107C62.5739 88.5177 61.9306 88.7205 61.5057 88.8843C61.3174 88.8676 61.1665 88.9011 60.9788 88.8843C60.9067 88.6594 60.8055 88.1391 60.8055 87.1503C60.8055 83.2862 59.2857 79.3041 56.9907 77.0798C56.3746 76.4827 54.653 75.2198 53.1759 74.3054C51.6988 73.3911 50.2067 72.331 49.8746 71.8778C49.3244 71.1258 49.285 70.6661 49.7079 69.2768C50.4785 66.7396 51.3927 65.3179 53.1759 63.7147C54.1107 62.8742 55.0496 62.1775 55.2567 62.1608C55.4638 62.1441 54.0647 61.7173 51.9621 61.2871C49.8596 60.8562 46.7763 59.9553 45.1861 59.3797C42.2784 58.3276 38.353 56.1164 36.8563 54.5179C36.793 54.4501 36.7379 54.4045 36.6829 54.3445C38.8273 45.8024 44.8446 38.8044 52.8224 35.4306C54.4917 34.7246 56.2146 34.2415 58.0311 33.87C58.9359 33.6851 59.8712 33.6115 60.8054 33.5165H60.8054ZM86.8421 46.5348C87.4943 46.938 89.9605 52.2722 90.6635 54.8714C91.5712 58.2268 91.5055 64.0295 90.6635 67.3628C90.343 68.6315 89.9265 69.8161 89.7898 69.9638C89.6532 70.1115 89.1522 69.2693 88.5694 68.2365C87.9865 67.2038 86.135 65.0071 84.5879 63.3746C80.1219 58.6622 79.4159 56.2047 81.2866 52.4438C82.23 50.5472 86.3372 46.2233 86.8421 46.5348V46.5348Z" fill="black"/>
<path d="M64 25C45.1415 25 29.8536 40.2878 29.8536 59.1464C29.8536 78.0049 45.1415 93.2927 64 93.2927C82.8585 93.2927 98.1464 78.0049 98.1464 59.1464C98.1464 40.2878 82.8585 25 64 25V25ZM60.8054 31.8093C61.177 31.7704 61.6444 31.8315 62.0192 31.8093C62.0637 31.987 61.756 32.6245 61.3323 33.5499C58.634 39.4446 58.4746 46.3464 60.9788 50.0362C61.432 50.7052 61.8458 51.3407 61.8458 51.4234C61.8458 51.5062 61.358 51.5968 60.8054 51.5968C59.5082 51.5968 58.2784 50.8086 55.7702 48.8224C54.656 47.9401 53.2102 47.2006 52.649 47.0884C51.7677 46.9124 51.5349 46.9886 50.3948 48.1288C49.3341 49.1894 49.0076 49.7656 49.0076 50.7365C49.0076 54.4182 53.3812 57.3375 61.5057 59.0597C72.5392 61.3981 75.2534 63.4951 75.5577 69.2969C75.9399 76.5722 72.0703 82.0565 63.5865 86.3034C62.5739 86.8104 61.9306 87.0132 61.5057 87.1771C61.3174 87.1603 61.1665 87.1938 60.9788 87.1771C60.9067 86.9521 60.8055 86.4318 60.8055 85.4431C60.8055 81.5789 59.2857 77.5968 56.9907 75.3726C56.3746 74.7754 54.653 73.5126 53.1759 72.5982C51.6988 71.6838 50.2067 70.6237 49.8746 70.1706C49.3244 69.4186 49.285 68.9588 49.7079 67.5696C50.4785 65.0323 51.3927 63.6106 53.1759 62.0075C54.1107 61.167 55.0496 60.4703 55.2567 60.4535C55.4638 60.4368 54.0647 60.01 51.9621 59.5799C49.8596 59.1489 46.7763 58.248 45.1861 57.6725C42.2784 56.6203 38.353 54.4092 36.8563 52.8106C36.793 52.7428 36.7379 52.6972 36.6829 52.6372C38.8273 44.0951 44.8446 37.0972 52.8224 33.7233C54.4917 33.0173 56.2146 32.5343 58.0311 32.1627C58.9359 31.9778 59.8712 31.9042 60.8054 31.8093H60.8054ZM86.8421 44.8276C87.4943 45.2308 89.9605 50.565 90.6635 53.1641C91.5712 56.5195 91.5055 62.3222 90.6635 65.6555C90.343 66.9242 89.9265 68.1088 89.7898 68.2565C89.6532 68.4042 89.1522 67.562 88.5694 66.5292C87.9865 65.4965 86.135 63.2998 84.5879 61.6673C80.1219 56.9549 79.4159 54.4974 81.2866 50.7365C82.23 48.84 86.3372 44.516 86.8421 44.8276V44.8276Z" fill="white"/>
<defs>
<linearGradient id="paint0_linear" x1="116" y1="117.999" x2="12" y2="117.999" gradientUnits="userSpaceOnUse">
<stop stop-color="#D5D3CF"/>
<stop offset="0.038" stop-color="#E3E2DF"/>
<stop offset="0.077" stop-color="#C0BFBC"/>
<stop offset="0.923" stop-color="#C0BFBC"/>
<stop offset="0.962" stop-color="#E3E2DF"/>
<stop offset="1" stop-color="#D5D3CF"/>
</linearGradient>
<linearGradient id="paint1_linear" x1="12" y1="60" x2="116" y2="60" gradientUnits="userSpaceOnUse">
<stop stop-color="#C061CB"/>
</linearGradient>
</defs>
</svg>
